svg/fluentui-system-icons/ic_fluent_control_button_20_filled.svg

<svg width="20" height="20" viewBox="0 0 20 20" fill="none" xmlns="http://www.w3.org/2000/svg">
<path d="M2 6.75C2 5.23122 3.23122 4 4.75 4H15.25C16.7688 4 18 5.23122 18 6.75V13.25C18 14.7688 16.7688 16 15.25 16H4.75C3.23122 16 2 14.7688 2 13.25V6.75ZM6 7C4.89543 7 4 7.89543 4 9V11C4 12.1046 4.89543 13 6 13H6.5C6.77614 13 7 12.7761 7 12.5C7 12.2239 6.77614 12 6.5 12H6C5.44772 12 5 11.5523 5 11V9C5 8.44772 5.44772 8 6 8H6.5C6.77614 8 7 7.77614 7 7.5C7 7.22386 6.77614 7 6.5 7H6ZM9 7.5C9 7.22386 8.77614 7 8.5 7C8.22386 7 8 7.22386 8 7.5V9H7.5C7.22386 9 7 9.22386 7 9.5C7 9.77614 7.22386 10 7.5 10H8V11.75C8 12.4404 8.55964 13 9.25 13H9.5C9.77614 13 10 12.7761 10 12.5C10 12.2239 9.77614 12 9.5 12H9.25C9.11193 12 9 11.8881 9 11.75V10H9.5C9.77614 10 10 9.77614 10 9.5C10 9.22386 9.77614 9 9.5 9H9V7.5ZM16 7.5C16 7.22386 15.7761 7 15.5 7C15.2239 7 15 7.22386 15 7.5V12.5C15 12.7761 15.2239 13 15.5 13C15.7761 13 16 12.7761 16 12.5V7.5ZM12 10.5C12 10.2239 12.2239 10 12.5 10H13.5C13.7761 10 14 9.77614 14 9.5C14 9.22386 13.7761 9 13.5 9H12.5C11.6716 9 11 9.67157 11 10.5V12.5C11 12.7761 11.2239 13 11.5 13C11.7761 13 12 12.7761 12 12.5V10.5Z" fill="#212121"/>
</svg>

<svg xmlns="http://www.w3.org/2000/svg" width="20" height="20"><path d="M2 6.75A2.75 2.75 0 0 1 4.75 4h10.5A2.75 2.75 0 0 1 18 6.75v6.5A2.75 2.75 0 0 1 15.25 16H4.75A2.75 2.75 0 0 1 2 13.25v-6.5ZM6 7a2 2 0 0 0-2 2v2a2 2 0 0 0 2 2h.5a.5.5 0 0 0 0-1H6a1 1 0 0 1-1-1V9a1 1 0 0 1 1-1h.5a.5.5 0 0 0 0-1H6Zm3 .5a.5.5 0 0 0-1 0V9h-.5a.5.5 0 0 0 0 1H8v1.75c0 .69.56 1.25 1.25 1.25h.25a.5.5 0 0 0 0-1h-.25a.25.25 0 0 1-.25-.25V10h.5a.5.5 0 0 0 0-1H9V7.5Zm7 0a.5.5 0 0 0-1 0v5a.5.5 0 0 0 1 0v-5Zm-4 3a.5.5 0 0 1 .5-.5h1a.5.5 0 0 0 0-1h-1a1.5 1.5 0 0 0-1.5 1.5v2a.5.5 0 0 0 1 0v-2Z"/></svg>
